X:3071
T:Pletionka
C:anon.
O:Russia
F:http://abc.musicaviva.com/tunes/russia/pletionka.abc
M:C|
L:1/4
K:Em
"Em"eB2B|"Am"AA B>A|"Em"GF GA|"B7"B2B2|
"Em"eB2B|"Am"AA B>A|"Em"GG "B7"FF|"Em"E2E2|
"B7"FB, B>A|"Em"GF/G/ A/G/F/E/|"B"^DE/F/ B,^C/D/|"Em"E2GE|
"B7"FB, B>A|"Em"GF/G/ A/G/F/E/|"B"^DE/F/ B,^C/D/|"Em"E2E2|]
W:
W:
W:  From Musica Viva - http://www.musicaviva.com
W:  the Internet center for free sheet music downloads.
